X:1
T:Pastor Pastorum, 65.65
T:Pastor Pastorum, 65.65
T:Friedrich Silcher, 1841
T:Public Domain Courtesy of the Cyber Hymnal™
C:Friedrich Silcher, 1841
Z:Public Domain
Z:Courtesy of the Cyber Hymnal™
%%score ( 1 2 ) ( 3 4 )
L:1/8
Q:1/4=115
M:none
K:D
V:1 treble 
V:2 treble 
V:3 bass 
V:4 bass 
V:1
 [DA]3 [FB] [EA]2 [EG]2 | F4 [CE]4 | D2 ([CE][DF]) G2 [DF]2 | [CE]8 | [DF]2 [DA]2 [GB]2 [GA]2 | %5
 d4 [Ac]2 [EB]2 | [FA]2 (GF) [DG]2 [CA]2 | [DF]8 |] %8
V:2
 x8 | (E2 D2) x4 | D2 (B,C) x4 | x8 | x8 | (F2 G2) x4 | x2 D2 x4 | x8 |] %8
V:3
 [D,F,]3 [D,F,] [C,A,]2 [C,A,]2 | A,4 A,4 | [F,A,]2 ([E,G,][D,A,]) [G,B,]2 [D,A,]2 | [A,,A,]8 | %4
 [D,A,]2 [F,D]2 [G,D]2 [A,C]2 | [B,D]4 [A,E]2 [G,C]2 | [F,D]2 [B,D]2 [E,B,]2 [A,,A,]2 | [D,A,]8 |] %8
V:4
 x8 | (D,2 F,2) (A,2 G,2) | x8 | x8 | x8 | x8 | x8 | x8 |] %8

